images/client-logos/alfa-bank.svg

<svg height="141" viewBox="0 0 400 141" width="400" xmlns="http://www.w3.org/2000/svg"><path d="m45.8195251.69129288c9.53562 0 12.5319261 6.83060686 15.0364116 13.66015832 1.0638522 2.8939314 25.8311345 70.7166227 26.5688654 72.7514934.2079156.562533.0717678 1.5007915-.8042216 1.8343008-.8770449.3292876-13.7467019 5.3372031-14.4569921 5.605277-.7113457.2659631-1.5124011-.1298153-1.7741425-.8369393-.2638522-.7029024-5.5989446-15.4892243-6.2005277-17.1419947-1.7741425 0-34.9234828 0-36.6944591 0-.6047493 1.6527704-5.994723 16.4686438-6.2427441 17.1419947-.2448548.6807388-1.019525 1.1335092-1.7709762.8369393-.7546174-.2986807-13.68232191-5.3076517-14.44643801-5.605277-.73878628-.2828496-1.07968338-1.125066-.81477572-1.8343008.90765171-2.5435778 25.29815303-69.2728654 26.54670183-72.7514934 2.4147757-6.72084434 5.5208443-13.66015832 15.0532982-13.66015832zm-43.56306072 121.34674412c-.76939314 0-1.38997361.640633-1.38997361 1.426913v15.84591c0 .791557.62163588 1.422691 1.38997361 1.422691h87.12717682c.7630606 0 1.3783641-.631134 1.3783641-1.422691v-15.84591c0-.785224-.6153035-1.426913-1.3783641-1.426913zm43.49023742-99.2010977-12.410554 37.2559367h25.0153034l-12.4527705-37.2559367zm186.1656992 61.0817942c-1.824802.6248021-3.030079.776781-4.469657.776781-2.965699 0-4.616359-1.1746702-4.616359-4.2195251 0-3.1683377 2.098153-4.2364116 6.205805-4.2364116.989974 0 1.98839.1467019 2.448549.307124v2.2670185c0 2.4527705.12876 4.0601583.431662 5.1050132zm10.54248 3.6412032c-2.186807-3.330913-2.757783-5.2918628-2.757783-9.4902797v-8.5055409c0-4.5931398-.531926-6.2427441-1.749868-7.9197889-1.682322-2.3672823-4.48971-3.3931399-9.665436-3.3931399-3.65277 0-7.207388.3978892-10.642744 1.269657l1.228496 6.0580475c2.331399-.3240105 4.767282-.6079155 6.486544-.6079155 5.494459 0 6.12876.7989445 6.12876 4.9160949v1.5398417c-1.221109-.3261213-2.598417-.5614775-4.192085-.5614775-8.265963 0-12.630079 4.0422163-12.630079 10.7324538 0 6.2786702 4.65752 9.7003061 10.344063 9.7003061 2.129816 0 4.343008-.3915568 6.097098-1.1007916 1.05752-.4675462 1.517678-.7356201 2.896042-1.6306069.816887 1.2084433 2.480211 2.4348285 3.154618 2.655409zm81.76781-3.6412032c-1.830079.6248021-3.026913.776781-4.471768.776781-2.96992 0-4.649076-1.1746702-4.649076-4.2195251 0-3.1683377 2.124538-4.2364116 6.240633-4.2364116.99314 0 1.984169.1467019 2.43694.307124v2.2670185c-.001056 2.4527705.134036 4.0601583.443271 5.1050132zm10.543536 3.6412032c-2.198417-3.330913-2.763061-5.2918628-2.763061-9.4902797v-8.5055409c0-4.5931398-.532981-6.2427441-1.754089-7.9197889-1.679156-2.3672823-4.486544-3.3931399-9.665436-3.3931399-3.658047 0-7.243272.3978892-10.670185 1.269657l1.223219 6.0580475c2.329288-.3240105 4.774671-.6079155 6.530871-.6079155 5.476517 0 6.111874.7989445 6.111874 4.9160949v1.5398417c-1.213721-.3261213-2.582586-.5614775-4.187863-.5614775-8.292349 0-12.661742 4.0422163-12.661742 10.7324538 0 6.2786702 4.662797 9.7003061 10.381003 9.7003061 2.126649 0 4.340897-.3915568 6.090765-1.1007916 1.068074-.4675462 1.520844-.7356201 2.891821-1.6306069.826385 1.2084433 2.492876 2.4348285 3.164116 2.655409zm64.367282 3.0300791s-4.526649-9.6612559-5.630607-11.8512295c-1.25277-2.4802111-2.404221-4.1931399-4.959366-4.794723v-.1488126c1.709762-.3240106 3.073351-1.362533 4.539314-4.5203167 1.429023-3.0828496 1.842744-3.7467018 2.668073-4.4738786.818998-.7387863 1.931399-.4633245 1.931399-.4633245l.424274-5.7055409c-1.190501-.1562006-2.507651-.1604222-3.864907-.0823219-2.244855.1340369-3.411082.7725593-4.516095 1.8923483-.856992.8538258-1.448021 2.1277044-2.173087 3.5862796-.777837 1.5957784-1.389974 2.8833774-2.181531 4.510818-.790501 1.6601583-1.184169 2.4063324-3.331926 2.4063324h-1.392084v-25.2200527h-8.293404v44.8633667h8.293404v-12.8971398l1.125066-.0242744c2.377836 0 2.789446.5878628 4.041161 3.0902374 1.474406 2.9889182 4.279683 9.8322322 4.279683 9.8322322zm-233.153562 0h9.554618l-14.443272-44.1076939c-1.515567-.5118734-3.40686-.8316623-5.415304-.8316623-2.193139 0-2.972031.2923483-4.691292.8316623l-15.277045 44.1076939h9.159894s1.232718-3.8670184 2.697626-8.6702269h15.835356c1.419525 4.7989868 2.579419 8.6702269 2.579419 8.6702269zm-16.087599-16.066533s2.635356-8.8474934 3.042744-10.2321899c1.068074-3.5620053 2.660686-9.2295515 2.660686-9.2295515h.265963s1.46913 5.8744064 2.43694 9.176781c.367282 1.3044855 2.894987 10.2849604 2.894987 10.2849604zm106.665963-5.0364116c-2.924538 0-5.296042 2.3799473-5.296042 5.3044855 0 2.9372032 2.370449 5.2992085 5.296042 5.2992085 2.921372 0 5.28971-2.3620053 5.28971-5.2992085 0-2.9245382-2.369393-5.3044855-5.28971-5.3044855zm-69.680211-23.7614775h-8.295514v44.8633667h8.295514zm164.866491 19.6538258c4.578364.1044855 5.140897 1.0448549 5.140897 4.8970977v20.3134986h8.219525v-21.0269551c0-4.5931399-.531926-6.2427441-1.750923-7.9197889-1.681267-2.3672824-5.00686-3.3931399-10.612137-3.3931399-5.546175 0-9.074407.5899736-13.628497 1.9440634v30.3947651h8.305014v-24.8190396c2.189973-.3166226 2.563588-.3905013 4.326121-.3905013zm-144.350396-20.4496042c-5.175725 0-7.989446 1.0195251-9.668601 3.3878628-1.217942 1.6759894-1.751979 3.3699208-1.751979 7.9662269v3.9102903h-4.122428v6.7060686h4.122428v23.6886965h8.217414l-.018997-23.6886965h8.208971v-6.7060686h-8.208971l.018997-3.5957784c0-4.1118734.637467-4.9097625 6.129815-4.9097625.589974 0 1.256992.0316622 1.97256.0865435l1.297097-6.441161c-2.033773-.2744063-4.107651-.4042216-6.196306-.4042216zm66.029552.4137203c2.823219-.1635884 9.125066-.3989446 13.094459-.3989446.705013 0 1.44591.0063325 2.204749.0401056 7.795251 0 12.252243 5.6738786 12.252243 12.3250659 0 4.5234829-2.070713 7.5261214-6.925594 9.3192612 5.721372 1.26438 8.715568 5.7298154 8.715568 11.1820581 0 4.005277-1.141953 7.182058-3.223219 9.3541319-2.680739 2.6532982-6.74723 4.1329816-12.158312 4.1308707-4.835884 0-10.8781-.144591-13.96095-.3282322v-45.6243166zm13.095514 7.3562005c-1.389973 0-3.072295.0221636-4.76306.0833774v10.7725593h4.770448c1.869129 0 3.394195-.5255936 4.432718-1.5398417.977308-.9488126 1.48496-2.3007915 1.48496-3.9050132 0-3.4385224-1.85963-5.3952506-5.322427-5.4110818-.287072 0-.41161 0-.602639 0zm.157256 30.8686016h.383114c4.289182 0 6.950923-2.2986807 6.977308-6.9245382-.048548-1.669657-.679683-3.1968338-1.811081-4.3039578-1.258048-1.2538259-3.023747-1.9092348-5.092349-1.9092348 0 0-4.681794 0-5.378364 0v13.0849604c1.516623.0327177 3.184169.0453826 4.921372.0527704z" fill="#e3e8f0"/></svg>

<?xml version="1.0" encoding="UTF-8"?>
<svg width="400px" height="141px" viewBox="0 0 400 141" version="1.1" xmlns="http://www.w3.org/2000/svg" xmlns:xlink="http://www.w3.org/1999/xlink">
    <!-- Generator: Sketch 52.4 (67378) - http://www.bohemiancoding.com/sketch -->
    <title>alfa-bank@1x</title>
    <desc>Created with Sketch.</desc>
    <g id="Page-1" stroke="none" stroke-width="1" fill="none" fill-rule="evenodd">
        <g id="alfa-bank" fill="#E3E8F0" fill-rule="nonzero">
            <path d="M45.8195251,0.691292876 C55.3551451,0.691292876 58.3514512,7.52189974 60.8559367,14.3514512 C61.9197889,17.2453826 86.6870712,85.0680739 87.4248021,87.1029446 C87.6327177,87.6654776 87.4965699,88.6037361 86.6205805,88.9372454 C85.7435356,89.266533 72.8738786,94.2744485 72.1635884,94.5425224 C71.4522427,94.8084855 70.6511873,94.4127071 70.3894459,93.7055831 C70.1255937,93.0026807 64.7905013,78.2163588 64.1889182,76.5635884 C62.4147757,76.5635884 29.2654354,76.5635884 27.4944591,76.5635884 C26.8897098,78.2163588 21.4997361,93.0322322 21.251715,93.7055831 C21.0068602,94.3863219 20.23219,94.8390923 19.4807388,94.5425224 C18.7261214,94.2438417 5.79841689,89.2348707 5.03430079,88.9372454 C4.29551451,88.6543958 3.95461741,87.8121794 4.21952507,87.1029446 C5.12717678,84.5593668 29.5176781,17.8300792 30.7662269,14.3514512 C33.1810026,7.63060686 36.2870712,0.691292876 45.8195251,0.691292876 Z M2.25646438,122.038037 C1.48707124,122.038037 0.866490765,122.67867 0.866490765,123.46495 L0.866490765,139.31086 C0.866490765,140.102417 1.48812665,140.733551 2.25646438,140.733551 L89.3836412,140.733551 C90.1467018,140.733551 90.7620053,140.102417 90.7620053,139.31086 L90.7620053,123.46495 C90.7620053,122.679726 90.1467018,122.038037 89.3836412,122.038037 L2.25646438,122.038037 Z M45.7467018,22.8369393 L33.3361478,60.092876 L58.3514512,60.092876 L45.8986807,22.8369393 L45.7467018,22.8369393 Z M231.912401,83.9187335 C230.087599,84.5435356 228.882322,84.6955145 227.442744,84.6955145 C224.477045,84.6955145 222.826385,83.5208443 222.826385,80.4759894 C222.826385,77.3076517 224.924538,76.2395778 229.03219,76.2395778 C230.022164,76.2395778 231.02058,76.3862797 231.480739,76.5467018 L231.480739,78.8137203 C231.480739,81.2664908 231.609499,82.8738786 231.912401,83.9187335 Z M242.454881,87.5599367 C240.268074,84.2290237 239.697098,82.2680739 239.697098,78.069657 L239.697098,69.5641161 C239.697098,64.9709763 239.165172,63.321372 237.94723,61.6443272 C236.264908,59.2770449 233.45752,58.2511873 228.281794,58.2511873 C224.629024,58.2511873 221.074406,58.6490765 217.63905,59.5208443 L218.867546,65.5788918 C221.198945,65.2548813 223.634828,64.9709763 225.35409,64.9709763 C230.848549,64.9709763 231.48285,65.7699208 231.48285,69.8870712 L231.48285,71.4269129 C230.261741,71.1007916 228.884433,70.8654354 227.290765,70.8654354 C219.024802,70.8654354 214.660686,74.9076517 214.660686,81.5978892 C214.660686,87.8765594 219.318206,91.2981953 225.004749,91.2981953 C227.134565,91.2981953 229.347757,90.9066385 231.101847,90.1974037 C232.159367,89.7298575 232.619525,89.4617836 233.997889,88.5667968 C234.814776,89.7752401 236.4781,91.0016253 237.152507,91.2222058 L242.454881,87.5599367 Z M324.222691,83.9187335 C322.392612,84.5435356 321.195778,84.6955145 319.750923,84.6955145 C316.781003,84.6955145 315.101847,83.5208443 315.101847,80.4759894 C315.101847,77.3076517 317.226385,76.2395778 321.34248,76.2395778 C322.33562,76.2395778 323.326649,76.3862797 323.77942,76.5467018 L323.77942,78.8137203 C323.778364,81.2664908 323.913456,82.8738786 324.222691,83.9187335 Z M334.766227,87.5599367 C332.56781,84.2290237 332.003166,82.2680739 332.003166,78.069657 L332.003166,69.5641161 C332.003166,64.9709763 331.470185,63.321372 330.249077,61.6443272 C328.569921,59.2770449 325.762533,58.2511873 320.583641,58.2511873 C316.925594,58.2511873 313.340369,58.6490765 309.913456,59.5208443 L311.136675,65.5788918 C313.465963,65.2548813 315.911346,64.9709763 317.667546,64.9709763 C323.144063,64.9709763 323.77942,65.7699208 323.77942,69.8870712 L323.77942,71.4269129 C322.565699,71.1007916 321.196834,70.8654354 319.591557,70.8654354 C311.299208,70.8654354 306.929815,74.9076517 306.929815,81.5978892 C306.929815,87.8765594 311.592612,91.2981953 317.310818,91.2981953 C319.437467,91.2981953 321.651715,90.9066385 323.401583,90.1974037 C324.469657,89.7298575 324.922427,89.4617836 326.293404,88.5667968 C327.119789,89.7752401 328.78628,91.0016253 329.45752,91.2222058 L334.766227,87.5599367 Z M399.133509,90.5900158 C399.133509,90.5900158 394.60686,80.9287599 393.502902,78.7387863 C392.250132,76.2585752 391.098681,74.5456464 388.543536,73.9440633 L388.543536,73.7952507 C390.253298,73.4712401 391.616887,72.4327177 393.08285,69.274934 C394.511873,66.1920844 394.925594,65.5282322 395.750923,64.8010554 C396.569921,64.0622691 397.682322,64.3377309 397.682322,64.3377309 L398.106596,58.63219 C396.916095,58.4759894 395.598945,58.4717678 394.241689,58.5498681 C391.996834,58.683905 390.830607,59.3224274 389.725594,60.4422164 C388.868602,61.2960422 388.277573,62.5699208 387.552507,64.028496 C386.77467,65.6242744 386.162533,66.9118734 385.370976,68.539314 C384.580475,70.1994723 384.186807,70.9456464 382.03905,70.9456464 L380.646966,70.9456464 L380.646966,45.7255937 L372.353562,45.7255937 L372.353562,90.5889604 L380.646966,90.5889604 L380.646966,77.6918206 L381.772032,77.6675462 C384.149868,77.6675462 384.561478,78.255409 385.813193,80.7577836 C387.287599,83.7467018 390.092876,90.5900158 390.092876,90.5900158 L399.133509,90.5900158 Z M165.979947,90.5900158 L175.534565,90.5900158 L161.091293,46.4823219 C159.575726,45.9704485 157.684433,45.6506596 155.675989,45.6506596 C153.48285,45.6506596 152.703958,45.9430079 150.984697,46.4823219 L135.707652,90.5900158 L144.867546,90.5900158 C144.867546,90.5900158 146.100264,86.7229974 147.565172,81.9197889 L163.400528,81.9197889 C164.820053,86.7187757 165.979947,90.5900158 165.979947,90.5900158 Z M149.892348,74.5234828 C149.892348,74.5234828 152.527704,65.6759894 152.935092,64.2912929 C154.003166,60.7292876 155.595778,55.0617414 155.595778,55.0617414 L155.861741,55.0617414 C155.861741,55.0617414 157.330871,60.9361478 158.298681,64.2385224 C158.665963,65.5430079 161.193668,74.5234828 161.193668,74.5234828 L149.892348,74.5234828 Z M256.558311,69.4870712 C253.633773,69.4870712 251.262269,71.8670185 251.262269,74.7915567 C251.262269,77.7287599 253.632718,80.0907652 256.558311,80.0907652 C259.479683,80.0907652 261.848021,77.7287599 261.848021,74.7915567 C261.848021,71.8670185 259.478628,69.4870712 256.558311,69.4870712 Z M186.8781,45.7255937 L178.582586,45.7255937 L178.582586,90.5889604 L186.8781,90.5889604 L186.8781,45.7255937 Z M351.744591,65.3794195 C356.322955,65.483905 356.885488,66.4242744 356.885488,70.2765172 L356.885488,90.5900158 L365.105013,90.5900158 L365.105013,69.5630607 C365.105013,64.9699208 364.573087,63.3203166 363.35409,61.6432718 C361.672823,59.2759894 358.34723,58.2501319 352.741953,58.2501319 C347.195778,58.2501319 343.667546,58.8401055 339.113456,60.1941953 L339.113456,90.5889604 L347.41847,90.5889604 L347.41847,65.7699208 C349.608443,65.4532982 349.982058,65.3794195 351.744591,65.3794195 Z M207.394195,44.9298153 C202.21847,44.9298153 199.404749,45.9493404 197.725594,48.3176781 C196.507652,49.9936675 195.973615,51.6875989 195.973615,56.283905 L195.973615,60.1941953 L191.851187,60.1941953 L191.851187,66.9002639 L195.973615,66.9002639 L195.973615,90.5889604 L204.191029,90.5889604 L204.172032,66.9002639 L212.381003,66.9002639 L212.381003,60.1941953 L204.172032,60.1941953 L204.191029,56.5984169 C204.191029,52.4865435 204.828496,51.6886544 210.320844,51.6886544 C210.910818,51.6886544 211.577836,51.7203166 212.293404,51.7751979 L213.590501,45.3340369 C211.556728,45.0596306 209.48285,44.9298153 207.394195,44.9298153 Z M273.423747,45.3435356 C276.246966,45.1799472 282.548813,44.944591 286.518206,44.944591 C287.223219,44.944591 287.964116,44.9509235 288.722955,44.9846966 C296.518206,44.9846966 300.975198,50.6585752 300.975198,57.3097625 C300.975198,61.8332454 298.904485,64.8358839 294.049604,66.6290237 C299.770976,67.8934037 302.765172,72.3588391 302.765172,77.8110818 C302.765172,81.8163588 301.623219,84.9931398 299.541953,87.1652137 C296.861214,89.8185119 292.794723,91.2981953 287.383641,91.2960844 C282.547757,91.2960844 276.505541,91.1514934 273.422691,90.9678522 L273.422691,45.3435356 L273.423747,45.3435356 Z M286.519261,52.6997361 C285.129288,52.6997361 283.446966,52.7218997 281.756201,52.7831135 L281.756201,63.5556728 L286.526649,63.5556728 C288.395778,63.5556728 289.920844,63.0300792 290.959367,62.0158311 C291.936675,61.0670185 292.444327,59.7150396 292.444327,58.1108179 C292.444327,54.6722955 290.584697,52.7155673 287.1219,52.6997361 C286.834828,52.6997361 286.71029,52.6997361 286.519261,52.6997361 Z M286.676517,83.5683377 L287.059631,83.5683377 C291.348813,83.5683377 294.010554,81.269657 294.036939,76.6437995 C293.988391,74.9741425 293.357256,73.4469657 292.225858,72.3398417 C290.96781,71.0860158 289.202111,70.4306069 287.133509,70.4306069 C287.133509,70.4306069 282.451715,70.4306069 281.755145,70.4306069 L281.755145,83.5155673 C283.271768,83.548285 284.939314,83.5609499 286.676517,83.5683377 Z" id="Shape"></path>
        </g>
    </g>
</svg>
